X: 1
T: Mrs Jamieson's Favourite
R: waltz
M: 3/4
L: 1/8
K: Amaj
E>AB c2E|F2E FA2|E>Ac e2f|e2c B2c|
E>AB c2E|F2E FA2|EAB c<ef|c2B A3|
e2A f2A|e2E F2A|e2A f2A|a2c B2c|
e>AA ABc|F2E F2A|EAB c<ef|c2BA3|


Tune 2824	Setting 16028

